X:1
T:Title
%%score { ( 1 3 ) | 2 }
L:1/8
M:3/4
K:F
V:1 treble nm="Grand Piano"
V:3 treble 
V:2 bass 
V:1
 z2 z2[Q:1/4=100] AG | F3 C FG | A4 A[GB] | [Ac]3 [_Ad] [=Ac][FA] |[M:2/4] [EG]4 |[M:1/4] AG | %6
[M:3/4] F3 c [Fd][Ff] | c4 cA | F[DFB] [CFA]2 [B,EG]2 |[M:2/4] F4 |[M:1/4] AB | %11
[M:3/4] c3 c [Gc][Ac] | [_Ad]2 [=Ac]2 AA | G3 c ed |[M:2/4] c3 B |[M:1/4] AG | %16
[M:3/4] F3 c [Fd][Ff] | c2 A2 cA | F[DFB] [CFA]2 [B,EG]2 |[M:2/4] [F,A,F]4 |] %20
V:2
 z2 z2 [F,CF][F,B,F] | [F,A,C]3 [F,A,] [F,A,C][F,B,C] | [F,CF]4 [F,CF][F,C] | %3
 [F,C]3 [F,=B,] [F,C][F,C] |[M:2/4] [C,C]4 |[M:1/4][K:treble] [F,CF][G,B,F] | %6
[M:3/4][K:bass] [F,A,C]3 [F,A,F] [B,,B,][D,B,] | [F,A,F]4 [F,A,F][F,CF] | [D,=B,]B,, C,2 C,2 | %9
[M:2/4] [F,A,]4 |[M:1/4] [F,F][F,G,F] |[M:3/4] [F,A,F]3 [F,A,F] [F,B,][F,C] | %12
 [F,=B,]2 [F,C]2[K:treble] [F,CF][F,CF] | [G,CE]3 [G,CE] [G,CG][G,=B,F] |[M:2/4][K:bass] [C,C]4 | %15
[M:1/4] [F,CF][F,B,F] |[M:3/4] [F,A,C]3 [F,A,F] [B,,B,][D,B,] | [F,A,F]2 [F,CF]2 [F,A,F][F,CF] | %18
 [D,=B,]B,, C,2 C,2 |[M:2/4] F,,4 |] %20
V:3
 x6 | x6 | x6 | x6 |[M:2/4] x4 |[M:1/4] x2 |[M:3/4] x6 | x6 | x6 |[M:2/4] x4 |[M:1/4] x2 | %11
[M:3/4] x6 | x6 | x6 |[M:2/4] E4 |[M:1/4] x2 |[M:3/4] x6 | x6 | x6 |[M:2/4] x4 |] %20

